src/icons/stylus.svg

<svg viewBox="0 0 200 200" xmlns="http://www.w3.org/2000/svg">
  <path
    d="M127.219 155.91C141.858 138.4 143.581 120.316 132.242 86.732C125.066 65.491 113.153 49.129 121.908 35.925C131.238 21.86 151.043 35.495 134.538 54.296L137.839 56.592C157.645 58.889 167.405 31.762 152.622 24.012C113.584 3.63201 79.4255 42.814 94.4955 88.167C100.954 107.399 109.996 127.78 102.676 143.998C96.3615 157.92 84.1615 166.101 75.9815 166.388C58.9025 167.25 70.2415 128.068 89.9035 118.308C91.6255 117.448 94.0655 116.299 91.7695 113.428C67.5145 110.702 53.3055 121.896 45.1245 137.541C21.2995 183.038 90.3345 199.83 127.22 155.911L127.219 155.91Z"
    fill="#C0CA33"
  />
</svg>

<svg xml:space="preserve" xmlns="http://www.w3.org/2000/svg" viewBox="0 0 200 200"><path d="M127.22 155.91c14.639-17.51 16.362-35.594 5.023-69.178-7.176-21.241-19.089-37.603-10.334-50.807 9.33-14.065 29.135-.43 12.63 18.371l3.301 2.296c19.806 2.297 29.566-24.83 14.783-32.58-39.038-20.38-73.197 18.802-58.127 64.155 6.459 19.232 15.501 39.613 8.181 55.831-6.315 13.922-18.515 22.103-26.695 22.39-17.079.862-5.74-38.32 13.922-48.08 1.722-.86 4.162-2.009 1.866-4.88-24.255-2.726-38.464 8.468-46.645 24.113-23.825 45.497 45.21 62.289 82.096 18.37z" style="fill:#c0ca33;stroke-width:1.4352"/></svg>
